img/hero-scroll.svg

<svg fill="none" height="184" viewBox="0 0 24 184" width="24" xmlns="http://www.w3.org/2000/svg"><path d="m7.85937 3.87891c0-.63282.10743-1.24805.32227-1.84571.21875-.59765.50391-1.105466.85547-1.523435l1.18949.574215c-.2891.41016-.52933.86524-.72074 1.36524s-.28711.9668-.28711 1.40039c0 .5.0957.88281.28711 1.14844.19141.26953.46875.40625.83204.41015.2773 0 .5254-.15625.7441-.46875.2188-.30859.4258-.7832.6211-1.42383.2539-.88671.6016-1.56054 1.043-2.02148s.9766-.691406 1.6055-.691406c.4765 0 .8867.101563 1.2304.304686.3477.20313.6153.50391.8028.90235.1875.39843.2812.88085.2812 1.44726 0 .06641-.0039.16992-.0117.31055-.0469.90234-.2754 1.75-.6856 2.54297l-1.3066-.26368c.3672-.72265.5801-1.44335.6387-2.1621.0039-.05079.0058-.12305.0058-.2168 0-.42578-.0879-.75586-.2636-.99024-.1719-.23437-.4024-.35156-.6914-.35156-.543 0-.9981.66211-1.3653 1.98633-.2539.88281-.6015 1.53906-1.0429 1.96875-.4414.43359-.9825.65039-1.6231.65039-.50389 0-.94139-.11719-1.31249-.35156-.36719-.23438-.65039-.58008-.84961-1.03711s-.29883-1.01172-.29883-1.66406zm1.26563 13.28519c0 .9648.5293 1.7832 1.5879 2.455l-.89064.9434c-.6875-.375-1.19726-.8438-1.52929-1.4063-.32813-.5585-.49219-1.2226-.49219-1.9921 0-.8243.18359-1.5567.55078-2.1973.3711-.6367.89063-1.1367 1.5586-1.5.67184-.3594 1.44334-.5449 2.31444-.5566.875.0117 1.6465.1972 2.3145.5566.6679.3633 1.1855.8633 1.5527 1.5.3711.6406.5566 1.373.5566 2.1973 0 .7617-.166 1.4238-.498 1.9863s-.8418 1.0332-1.5293 1.4121l-.8848-.9434c.5391-.3437.9375-.7187 1.1953-1.125.2618-.4062.3926-.8496.3926-1.33 0-.5235-.1308-.9903-.3926-1.4004-.2578-.4102-.6211-.7325-1.0898-.9668-.4688-.2305-1.0078-.3496-1.6172-.3574-.6094.0078-1.1484.1269-1.6172.3574-.4687.2343-.83396.5566-1.09568.9668-.25781.4101-.38672.8769-.38672 1.4004zm-1.125 14.7031 3.0879-1.875v-1.6172h-3.0879v-1.5234h8.4551v3.2285c0 .6445-.1074 1.2031-.3223 1.6758-.2109.4765-.5156.8418-.9141 1.0957-.3945.2578-.8613.3867-1.4003.3867-.6016 0-1.1172-.1465-1.5469-.4395-.4297-.2929-.7442-.709-.9434-1.248l-3.3281 2.1211zm7.1543-3.4922h-2.7656v1.6758c0 .3398.0547.6347.164.8847.1094.25.2637.4415.4629.5743.2031.1367.4414.205.7149.205.289 0 .541-.0703.7558-.2109.2149-.1367.3789-.334.4922-.5918.1172-.2578.1758-.5625.1758-.9141zm-7.35352 15.1953c0-.8437.18555-1.5898.55664-2.2383.37109-.6445.89063-1.1465 1.55859-1.5058.67189-.3555 1.44529-.5332 2.32029-.5332.8711 0 1.6407.1777 2.3086.5332.668.3593 1.1856.8613 1.5528 1.5058.371.6485.5566 1.3946.5566 2.2383 0 .8399-.1856 1.582-.5566 2.2266-.3672.6445-.8848 1.1445-1.5528 1.5-.6679.3554-1.4375.5332-2.3086.5332-.875 0-1.6484-.1778-2.32029-.5332-.66797-.3555-1.1875-.8555-1.55859-1.5-.37109-.6446-.55664-1.3867-.55664-2.2266zm1.30664 0c0 .5391.13086 1.0156.39258 1.4297s.6289.7344 1.1016.9609c.4765.2305 1.0214.3457 1.6347.3457s1.1543-.1152 1.6231-.3457c.4726-.2265.8379-.5468 1.0957-.9609.2617-.4141.3926-.8906.3926-1.4297 0-.543-.1309-1.0234-.3926-1.4414-.2578-.4141-.6231-.7363-1.0957-.9668-.4688-.2305-1.0098-.3457-1.6231-.3457s-1.1582.1152-1.6347.3457c-.4727.2305-.83988.5547-1.1016.9727-.26172.4179-.39258.8964-.39258 1.4355zm7.54688 12.0781h-7.34766v4.0606h-1.30664v-5.584h8.6543zm0 11.7032h-7.34766v4.0605h-1.30664v-5.584h8.6543z" fill="#000"/><g stroke="#000" stroke-linecap="round" stroke-linejoin="round" stroke-width="1.5"><path d="m12 87v58"/><circle cx="12" cy="172" r="11.25"/><path d="m16 170-4 4-4-4"/></g></svg>

<svg width="24" height="184" viewBox="0 0 24 184" fill="none" xmlns="http://www.w3.org/2000/svg">
<path d="M7.85937 3.87891C7.85937 3.24609 7.9668 2.63086 8.18164 2.0332C8.40039 1.43555 8.68555 0.927734 9.03711 0.509765L10.2266 1.08398C9.9375 1.49414 9.69727 1.94922 9.50586 2.44922C9.31445 2.94922 9.21875 3.41602 9.21875 3.84961C9.21875 4.34961 9.31445 4.73242 9.50586 4.99805C9.69727 5.26758 9.97461 5.4043 10.3379 5.4082C10.6152 5.4082 10.8633 5.25195 11.082 4.93945C11.3008 4.63086 11.5078 4.15625 11.7031 3.51562C11.957 2.62891 12.3047 1.95508 12.7461 1.49414C13.1875 1.0332 13.7227 0.802734 14.3516 0.802734C14.8281 0.802734 15.2383 0.904297 15.582 1.10742C15.9297 1.31055 16.1973 1.61133 16.3848 2.00977C16.5723 2.4082 16.666 2.89062 16.666 3.45703C16.666 3.52344 16.6621 3.62695 16.6543 3.76758C16.6074 4.66992 16.3789 5.51758 15.9687 6.31055L14.6621 6.04687C15.0293 5.32422 15.2422 4.60352 15.3008 3.88477C15.3047 3.83398 15.3066 3.76172 15.3066 3.66797C15.3066 3.24219 15.2187 2.91211 15.043 2.67773C14.8711 2.44336 14.6406 2.32617 14.3516 2.32617C13.8086 2.32617 13.3535 2.98828 12.9863 4.3125C12.7324 5.19531 12.3848 5.85156 11.9434 6.28125C11.502 6.71484 10.9609 6.93164 10.3203 6.93164C9.81641 6.93164 9.37891 6.81445 9.00781 6.58008C8.64062 6.3457 8.35742 6 8.1582 5.54297C7.95898 5.08594 7.85937 4.53125 7.85937 3.87891ZM9.125 17.1641C9.125 18.1289 9.6543 18.9473 10.7129 19.6191L9.82226 20.5625C9.13476 20.1875 8.625 19.7187 8.29297 19.1562C7.96484 18.5977 7.80078 17.9336 7.80078 17.1641C7.80078 16.3398 7.98437 15.6074 8.35156 14.9668C8.72266 14.3301 9.24219 13.8301 9.91016 13.4668C10.582 13.1074 11.3535 12.9219 12.2246 12.9102C13.0996 12.9219 13.8711 13.1074 14.5391 13.4668C15.207 13.8301 15.7246 14.3301 16.0918 14.9668C16.4629 15.6074 16.6484 16.3398 16.6484 17.1641C16.6484 17.9258 16.4824 18.5879 16.1504 19.1504C15.8184 19.7129 15.3086 20.1836 14.6211 20.5625L13.7363 19.6191C14.2754 19.2754 14.6738 18.9004 14.9316 18.4941C15.1934 18.0879 15.3242 17.6445 15.3242 17.1641C15.3242 16.6406 15.1934 16.1738 14.9316 15.7637C14.6738 15.3535 14.3105 15.0312 13.8418 14.7969C13.373 14.5664 12.834 14.4473 12.2246 14.4395C11.6152 14.4473 11.0762 14.5664 10.6074 14.7969C10.1387 15.0312 9.77344 15.3535 9.51172 15.7637C9.25391 16.1738 9.125 16.6406 9.125 17.1641ZM8 31.8672L11.0879 29.9922L11.0879 28.375L8 28.375L8 26.8516L16.4551 26.8516L16.4551 30.0801C16.4551 30.7246 16.3477 31.2832 16.1328 31.7559C15.9219 32.2324 15.6172 32.5977 15.2187 32.8516C14.8242 33.1094 14.3574 33.2383 13.8184 33.2383C13.2168 33.2383 12.7012 33.0918 12.2715 32.7988C11.8418 32.5059 11.5273 32.0898 11.3281 31.5508L8 33.6719L8 31.8672ZM15.1543 28.375L12.3887 28.375L12.3887 30.0508C12.3887 30.3906 12.4434 30.6855 12.5527 30.9355C12.6621 31.1855 12.8164 31.377 13.0156 31.5098C13.2187 31.6465 13.457 31.7148 13.7305 31.7148C14.0195 31.7148 14.2715 31.6445 14.4863 31.5039C14.7012 31.3672 14.8652 31.1699 14.9785 30.9121C15.0957 30.6543 15.1543 30.3496 15.1543 29.998L15.1543 28.375ZM7.80078 43.5703C7.80078 42.7266 7.98633 41.9805 8.35742 41.332C8.72851 40.6875 9.24805 40.1855 9.91601 39.8262C10.5879 39.4707 11.3613 39.293 12.2363 39.293C13.1074 39.293 13.877 39.4707 14.5449 39.8262C15.2129 40.1855 15.7305 40.6875 16.0977 41.332C16.4687 41.9805 16.6543 42.7266 16.6543 43.5703C16.6543 44.4102 16.4687 45.1523 16.0977 45.7969C15.7305 46.4414 15.2129 46.9414 14.5449 47.2969C13.877 47.6523 13.1074 47.8301 12.2363 47.8301C11.3613 47.8301 10.5879 47.6523 9.91601 47.2969C9.24804 46.9414 8.72851 46.4414 8.35742 45.7969C7.98633 45.1523 7.80078 44.4102 7.80078 43.5703ZM9.10742 43.5703C9.10742 44.1094 9.23828 44.5859 9.5 45C9.76172 45.4141 10.1289 45.7344 10.6016 45.9609C11.0781 46.1914 11.623 46.3066 12.2363 46.3066C12.8496 46.3066 13.3906 46.1914 13.8594 45.9609C14.332 45.7344 14.6973 45.4141 14.9551 45C15.2168 44.5859 15.3477 44.1094 15.3477 43.5703C15.3477 43.0273 15.2168 42.5469 14.9551 42.1289C14.6973 41.7148 14.332 41.3926 13.8594 41.1621C13.3906 40.9316 12.8496 40.8164 12.2363 40.8164C11.623 40.8164 11.0781 40.9316 10.6016 41.1621C10.1289 41.3926 9.76172 41.7168 9.5 42.1348C9.23828 42.5527 9.10742 43.0312 9.10742 43.5703ZM16.6543 55.6484L9.30664 55.6484L9.30664 59.709L8 59.709L8 54.125L16.6543 54.125L16.6543 55.6484ZM16.6543 67.3516L9.30664 67.3516L9.30664 71.4121L8 71.4121L8 65.8281L16.6543 65.8281L16.6543 67.3516Z" fill="black"/>
<path d="M12 87V145" stroke="black" stroke-width="1.5" stroke-linecap="round" stroke-linejoin="round"/>
<circle cx="12" cy="172" r="11.25" stroke="black" stroke-width="1.5" stroke-linecap="round" stroke-linejoin="round"/>
<path d="M16 170L12 174L8 170" stroke="black" stroke-width="1.5" stroke-linecap="round" stroke-linejoin="round"/>
</svg>
